X:623
T:Lindahls polka e bror Dahlgren
C:Bror Dahlgren
R:Polka
Z:Patrik Månsson, 2008-10-06
O:Skåne
B:[[!Omtyckta Skånska Allspelslåtar]]
M:2/4
L:1/8
K:D

|: "D" AD FA | "G" BG G1/2F1/2G | "A" cc E1/2F1/2G1/2A1/2 | "D" BB A2 | AD FA | "G" BG G1/2F1/2G | "A" cc A1/2A1/2B1/2c1/2 | "D" dd d2 :|
|: "D" Af f1/2e1/2f | "G" gg B2 | "A" Ag g1/2f1/2g | "D" aa f2 | Af f1/2e1/2f | "G" gg B2 | "A" Ac c1/2B1/2c | "D" ed d2 :|

(:musicend:)

(:music:)
